X: 49
T:V. Noche de Paz
M:3/4
L:1/8
Q:200
C:Trad
R:Villancico.
K:C
G3 A G2 | E6 | G3 A G2 | E6 | d4 {g}d2 | B4 {c}B2 | c4 {g}c2 | G6 |: 
A4 {c}A2 | c3 B A2 | G3 A G2 | E6 :|
D4 {c}D2| F3 DB,2 | C6- | E6 | c3 G E2 | G3 F D2 | C6- | "D.C." C2 || "F
inal" E2G2c3 ||

